; generated by Slic3r 1.2.9 on 2017-06-02 at 22:27:26

; external perimeters extrusion width = 0.40mm
; perimeters extrusion width = 0.48mm
; infill extrusion width = 0.48mm
; solid infill extrusion width = 0.48mm
; top infill extrusion width = 0.48mm

M107
M104 S205 ; set temperature
G28 ; home all axes
G1 Z5 F5000 ; lift nozzle

M109 S205 ; wait for temperature to be reached
G21 ; set units to millimeters
G90 ; use absolute coordinates
M82 ; use absolute distances for extrusion
G92 E0
G1 Z0.400 F7800.000
G1 E-2.00000 F2400.00000
G92 E0
G1 X60.752 Y70.720 F7800.000
G1 E2.00000 F2400.00000
G1 X62.508 Y69.220 E2.27422 F1800.000
G1 X64.668 Y68.405 E2.54845
G1 X65.925 Y68.286 E2.69842
G1 X134.075 Y68.286 E10.79226
G1 X136.350 Y68.683 E11.06649
G1 X138.355 Y69.827 E11.34071 F1800.000
G1 X139.855 Y71.583 E11.61494
G1 X140.670 Y73.743 E11.88916
G1 X140.789 Y75.000 E12.03913
G1 X140.789 Y125.000 E17.97739
G1 X140.392 Y127.275 E18.25161
G1 X139.248 Y129.280 E18.52584
G1 X137.492 Y130.780 E18.80006
G1 X135.332 Y131.595 E19.07429
G1 X134.075 Y131.714 E19.22425
G1 X65.925 Y131.714 E27.31810
G1 X63.650 Y131.317 E27.59233
G1 X61.645 Y130.173 E27.86655
G1 X60.145 Y128.417 E28.14077
G1 X59.330 Y126.257 E28.41500
G1 X59.211 Y125.000 E28.56497
G1 X59.211 Y75.000 E34.50322
G1 X59.608 Y72.725 E34.77745
G1 X60.722 Y70.772 E35.04455
G1 E33.04455 F2400.00000
G92 E0
G1 X106.294 Y103.844 F7800.000
G1 E2.00000 F2400.00000
G1 X105.447 Y104.221 E2.11020 F1800.000
G1 X104.539 Y104.414 E2.22040
G1 X103.611 Y104.414 E2.33060
G1 X102.703 Y104.221 E2.44080
G1 X101.856 Y103.844 E2.55100
G1 X101.105 Y103.298 E2.66120
G1 X100.484 Y102.609 E2.77139
G1 X100.020 Y101.805 E2.88159
G1 X99.734 Y100.923 E2.99180
G1 X99.637 Y100.000 E3.10199
G1 X99.734 Y99.077 E3.21219
G1 X100.020 Y98.195 E3.32239
G1 X100.484 Y97.391 E3.43259
G1 X101.105 Y96.702 E3.54279
G1 X101.856 Y96.156 E3.65299
G1 X102.703 Y95.779 E3.76319
G1 X103.611 Y95.586 E3.87339
G1 X104.539 Y95.586 E3.98359 F1800.000
G1 X105.447 Y95.779 E4.09379
G1 X106.294 Y96.156 E4.20399
G1 X107.045 Y96.702 E4.31419
G1 X107.666 Y97.391 E4.42438
G1 X108.130 Y98.195 E4.53458
G1 X108.416 Y99.077 E4.64479
G1 X108.513 Y100.000 E4.75498
G1 X108.416 Y100.923 E4.86518
G1 X108.130 Y101.805 E4.97538
G1 X107.666 Y102.609 E5.08558
G1 X107.045 Y103.298 E5.19578
G1 X106.343 Y103.808 E5.29885
G1 X105.935 Y103.222 F7800.000
G1 X105.225 Y103.538 E5.39122 F1800.000
G1 X104.464 Y103.700 E5.48359
G1 X103.686 Y103.700 E5.57596
G1 X102.925 Y103.538 E5.66833
G1 X102.215 Y103.222 E5.76070
G1 X101.586 Y102.765 E5.85308
G1 X101.065 Y102.187 E5.94544
G1 X100.676 Y101.513 E6.03781
G1 X100.436 Y100.773 E6.13019
G1 X100.355 Y100.000 E6.22256
G1 X100.436 Y99.227 E6.31492
G1 X100.676 Y98.487 E6.40730
G1 X101.065 Y97.813 E6.49967
G1 X101.586 Y97.235 E6.59203
G1 X102.215 Y96.778 E6.68441
G1 X102.925 Y96.462 E6.77678
G1 X103.686 Y96.300 E6.86915
G1 X104.464 Y96.300 E6.96152 F1800.000
G1 X105.225 Y96.462 E7.05389
G1 X105.935 Y96.778 E7.14626
G1 X106.564 Y97.235 E7.23863
G1 X107.085 Y97.813 E7.33100
G1 X107.474 Y98.487 E7.42337
G1 X107.714 Y99.227 E7.51574
G1 X107.795 Y100.000 E7.60811
G1 X107.714 Y100.773 E7.70048
G1 X107.474 Y101.513 E7.79285
G1 X107.085 Y102.187 E7.88522
G1 X106.564 Y102.765 E7.97759
G1 X105.984 Y103.187 E8.06283
G1 X105.576 Y102.600 F7800.000
G1 X105.003 Y102.855 E8.13737 F1800.000
G1 X104.389 Y102.986 E8.21191
G1 X103.761 Y102.986 E8.28645
G1 X103.147 Y102.855 E8.36099
G1 X102.574 Y102.600 E8.43553
G1 X102.066 Y102.231 E8.51008
G1 X101.646 Y101.765 E8.58462
G1 X101.332 Y101.221 E8.65916
G1 X101.138 Y100.624 E8.73370
G1 X101.073 Y100.000 E8.80824
G1 X101.138 Y99.376 E8.88278
G1 X101.332 Y98.779 E8.95732
G1 X101.646 Y98.235 E9.03186
G1 X102.066 Y97.769 E9.10640
G1 X102.574 Y97.400 E9.18094
G1 X103.147 Y97.145 E9.25548
G1 X103.761 Y97.014 E9.33002
G1 X104.389 Y97.014 E9.40456 F1800.000
G1 X105.003 Y97.145 E9.47910
G1 X105.576 Y97.400 E9.55365
G1 X106.084 Y97.769 E9.62819
G1 X106.504 Y98.235 E9.70273
G1 X106.818 Y98.779 E9.77727
G1 X107.012 Y99.376 E9.85181
G1 X107.077 Y100.000 E9.92635
G1 X107.012 Y100.624 E10.00089
G1 X106.818 Y101.221 E10.07543
G1 X106.504 Y101.765 E10.14997
G1 X106.084 Y102.231 E10.22451
G1 X105.625 Y102.565 E10.29193
G1 X105.562 Y103.000 F7800.000
G1 X132.247 Y123.172 F7800.000
G1 X67.753 Y123.172 E17.95149 F1800.000
G1 X67.753 Y76.828 E23.45547
G1 X132.247 Y76.828 E31.11504
G1 X132.247 Y123.112 E36.61189
G1 X132.961 Y123.886 F7800.000
G1 X67.039 Y123.886 E44.44109 F1800.000
G1 X67.039 Y76.114 E50.11470
G1 X132.961 Y76.114 E57.94390
G1 X132.961 Y123.826 E63.61039
G1 X133.675 Y124.600 F7800.000
G1 X66.325 Y124.600 E71.60922 F1800.000
G1 X66.325 Y75.400 E77.45247
G1 X133.675 Y75.400 E85.45130
G1 X133.675 Y124.540 E91.28743
G1 X133.329 Y124.400 F7800.000
G1 X131.811 Y121.173 F7800.000
G1 X108.554 Y97.916 E95.20603 F1800.000
G1 X108.891 Y99.266 E95.37181
G1 X131.811 Y122.186 E99.23365
G1 X131.348 Y122.736 E99.31932
G1 X108.905 Y100.293 E103.10069
G1 X108.757 Y101.158 E103.20518
G1 X130.335 Y122.736 E106.84092
G1 X129.322 Y122.736 E106.96163
G1 X108.503 Y101.918 E110.46929
G1 X108.133 Y102.560 E110.55766
G1 X128.309 Y122.736 E113.95710
G1 X127.295 Y122.736 E114.07781
G1 X107.694 Y103.135 E117.38044
G1 X107.198 Y103.651 E117.46581
G1 X126.282 Y122.736 E120.68139
G1 X125.269 Y122.736 E120.80210
G1 X106.611 Y104.078 E123.94585
G1 X105.943 Y104.424 E124.03540
G1 X124.256 Y122.736 E127.12088
G1 X123.243 Y122.736 E127.24159
G1 X105.197 Y104.691 E130.28209
G1 X104.343 Y104.850 E130.38561
G1 X122.230 Y122.736 E133.39931
G1 X121.216 Y122.736 E133.52002
G1 X103.311 Y104.831 E136.53683
G1 X101.880 Y104.413 E136.71447
G1 X120.203 Y122.736 E139.80172
G1 X119.190 Y122.736 E139.92243
G1 X73.718 Y77.264 E147.58407
G1 X74.731 Y77.264 E147.70478
G1 X99.618 Y102.150 E151.89793
G1 X99.264 Y100.784 E152.06607
G1 X75.744 Y77.264 E156.02900
G1 X76.757 Y77.264 E156.14971
G1 X99.240 Y99.747 E159.93790
G1 X99.382 Y98.876 E160.04305
G1 X77.770 Y77.264 E163.68447
G1 X78.784 Y77.264 E163.80518
G1 X99.631 Y98.111 E167.31776
G1 X100.001 Y97.468 E167.40616
G1 X79.797 Y77.264 E170.81038
G1 X80.810 Y77.264 E170.93109
G1 X100.435 Y96.889 E174.23768
G1 X100.927 Y96.367 E174.32307
G1 X81.823 Y77.264 E177.54182
G1 X82.836 Y77.264 E177.66253
G1 X101.513 Y95.941 E180.80945
G1 X102.176 Y95.590 E180.89875
G1 X83.849 Y77.264 E183.98655
G1 X84.863 Y77.264 E184.10726
G1 X102.916 Y95.317 E187.14908
G1 X103.762 Y95.150 E187.25185
G1 X85.876 Y77.264 E190.26556
G1 X86.889 Y77.264 E190.38627
G1 X104.782 Y95.157 E193.40104
G1 X106.189 Y95.551 E193.57518
G1 X87.902 Y77.264 E196.65638
G1 X88.915 Y77.264 E196.77709
G1 X131.811 Y120.160 E204.00463
G1 X131.811 Y119.147 E204.12534
G1 X89.928 Y77.264 E211.18217
G1 X90.942 Y77.264 E211.30288
G1 X131.811 Y118.133 E218.18901
G1 X131.811 Y117.120 E218.30972
G1 X91.955 Y77.264 E225.02514
G1 X92.968 Y77.264 E225.14584
G1 X131.811 Y116.107 E231.69055
G1 X131.811 Y115.094 E231.81126
G1 X93.981 Y77.264 E238.18526
G1 X94.994 Y77.264 E238.30597
G1 X131.811 Y114.081 E244.50926
G1 X131.811 Y113.068 E244.62997
G1 X96.007 Y77.264 E250.66256
G1 X97.021 Y77.264 E250.78327
G1 X131.811 Y112.054 E256.64514
G1 X131.811 Y111.041 E256.76585
G1 X98.034 Y77.264 E262.45702
G1 X99.047 Y77.264 E262.57773
G1 X131.811 Y110.028 E268.09819
G1 X131.811 Y109.015 E268.21890
G1 X100.060 Y77.264 E273.56865
G1 X101.073 Y77.264 E273.68935
G1 X131.811 Y108.002 E278.86840
G1 X131.811 Y106.989 E278.98911
G1 X102.086 Y77.264 E283.99744
G1 X103.100 Y77.264 E284.11815
G1 X131.811 Y105.975 E288.95577
G1 X131.811 Y104.962 E289.07648
G1 X104.113 Y77.264 E293.74340
G1 X105.126 Y77.264 E293.86411
G1 X131.811 Y103.949 E298.36032
G1 X131.811 Y102.936 E298.48103
G1 X106.139 Y77.264 E302.80653
G1 X107.152 Y77.264 E302.92724
G1 X131.811 Y101.923 E307.08203
G1 X131.811 Y100.910 E307.20274
G1 X108.165 Y77.264 E311.18682
G1 X109.179 Y77.264 E311.30753
G1 X131.811 Y99.896 E315.12090
G1 X131.811 Y98.883 E315.24161
G1 X110.192 Y77.264 E318.88428
G1 X111.205 Y77.264 E319.00499
G1 X131.811 Y97.870 E322.47695
G1 X131.811 Y96.857 E322.59766
G1 X112.218 Y77.264 E325.89891
G1 X113.231 Y77.264 E326.01961
G1 X131.811 Y95.844 E329.15016
G1 X131.811 Y94.831 E329.27086
G1 X114.244 Y77.264 E332.23070
G1 X115.258 Y77.264 E332.35141
G1 X131.811 Y93.817 E335.14053
G1 X131.811 Y92.804 E335.26124
G1 X116.271 Y77.264 E337.87966
G1 X117.284 Y77.264 E338.00037
G1 X131.811 Y91.791 E340.44807
G1 X131.811 Y90.778 E340.56878
G1 X118.297 Y77.264 E342.84578
G1 X119.310 Y77.264 E342.96649
G1 X131.811 Y89.765 E345.07278
G1 X131.811 Y88.752 E345.19349
G1 X120.323 Y77.264 E347.12907
G1 X121.337 Y77.264 E347.24978
G1 X131.811 Y87.738 E349.01466
G1 X131.811 Y86.725 E349.13537
G1 X122.350 Y77.264 E350.72953
G1 X123.363 Y77.264 E350.85024
G1 X131.811 Y85.712 E352.27370
G1 X131.811 Y84.699 E352.39441
G1 X124.376 Y77.264 E353.64716
G1 X125.389 Y77.264 E353.76787
G1 X131.811 Y83.686 E354.84991
G1 X131.811 Y82.673 E354.97062
G1 X126.402 Y77.264 E355.88195
G1 X127.416 Y77.264 E356.00266
G1 X131.811 Y81.659 E356.74328
G1 X131.811 Y80.646 E356.86399
G1 X128.429 Y77.264 E357.43391
G1 X129.442 Y77.264 E357.55462
G1 X131.811 Y79.633 E357.95383
G1 X131.811 Y78.620 E358.07454
G1 X130.455 Y77.264 E358.30303
G1 X131.468 Y77.264 E358.42374
G1 X131.811 Y77.607 E358.48153
G1 X118.177 Y122.736 F7800.000
G1 X72.705 Y77.264 E366.14317 F1800.000
G1 X71.691 Y77.264 E366.26388
G1 X117.164 Y122.736 E373.92552
G1 X116.151 Y122.736 E374.04623
G1 X70.678 Y77.264 E381.70787
G1 X69.665 Y77.264 E381.82858
G1 X115.137 Y122.736 E389.49021
G1 X114.124 Y122.736 E389.61092
G1 X68.652 Y77.264 E397.27256
G1 X68.189 Y77.814 E397.35823
G1 X113.111 Y122.736 E404.92718
G1 X112.098 Y122.736 E405.04789
G1 X68.189 Y78.827 E412.44613
G1 X68.189 Y79.840 E412.56684
G1 X111.085 Y122.736 E419.79438
G1 X110.072 Y122.736 E419.91509
G1 X68.189 Y80.853 E426.97192
G1 X68.189 Y81.867 E427.09263
G1 X109.058 Y122.736 E433.97874
G1 X108.045 Y122.736 E434.09945
G1 X68.189 Y82.880 E440.81486
G1 X68.189 Y83.893 E440.93557
G1 X107.032 Y122.736 E447.48028
G1 X106.019 Y122.736 E447.60099
G1 X68.189 Y84.906 E453.97498
G1 X68.189 Y85.919 E454.09569
G1 X105.006 Y122.736 E460.29897
G1 X103.993 Y122.736 E460.41968
G1 X68.189 Y86.932 E466.45226
G1 X68.189 Y87.946 E466.57297
G1 X102.979 Y122.736 E472.43484
G1 X101.966 Y122.736 E472.55555
G1 X68.189 Y88.959 E478.24671
G1 X68.189 Y89.972 E478.36742
G1 X100.953 Y122.736 E483.88787
G1 X99.940 Y122.736 E484.00858
G1 X68.189 Y90.985 E489.35832
G1 X68.189 Y91.998 E489.47903
G1 X98.927 Y122.736 E494.65807
G1 X97.914 Y122.736 E494.77878
G1 X68.189 Y93.011 E499.78710
G1 X68.189 Y94.025 E499.90781
G1 X96.900 Y122.736 E504.74543
G1 X95.887 Y122.736 E504.86614
G1 X68.189 Y95.038 E509.53305
G1 X68.189 Y96.051 E509.65376
G1 X94.874 Y122.736 E514.14996
G1 X93.861 Y122.736 E514.27067
G1 X68.189 Y97.064 E518.59616
G1 X68.189 Y98.077 E518.71687
G1 X92.848 Y122.736 E522.87166
G1 X91.835 Y122.736 E522.99237
G1 X68.189 Y99.090 E526.97644
G1 X68.189 Y100.104 E527.09715
G1 X90.821 Y122.736 E530.91052
G1 X89.808 Y122.736 E531.03123
G1 X68.189 Y101.117 E534.67389
G1 X68.189 Y102.130 E534.79460
G1 X88.795 Y122.736 E538.26655
G1 X87.782 Y122.736 E538.38726
G1 X68.189 Y103.143 E541.68850
G1 X68.189 Y104.156 E541.80921
G1 X86.769 Y122.736 E544.93975
G1 X85.756 Y122.736 E545.06046
G1 X68.189 Y105.169 E548.02028
G1 X68.189 Y106.183 E548.14099
G1 X84.742 Y122.736 E550.93011
G1 X83.729 Y122.736 E551.05082
G1 X68.189 Y107.196 E553.66923
G1 X68.189 Y108.209 E553.78994
G1 X82.716 Y122.736 E556.23764
G1 X81.703 Y122.736 E556.35835
G1 X68.189 Y109.222 E558.63534
G1 X68.189 Y110.235 E558.75605
G1 X80.690 Y122.736 E560.86233
G1 X79.677 Y122.736 E560.98304
G1 X68.189 Y111.248 E562.91862
G1 X68.189 Y112.262 E563.03933
G1 X78.663 Y122.736 E564.80420
G1 X77.650 Y122.736 E564.92491
G1 X68.189 Y113.275 E566.51907
G1 X68.189 Y114.288 E566.63978
G1 X76.637 Y122.736 E568.06323
G1 X75.624 Y122.736 E568.18394
G1 X68.189 Y115.301 E569.43668
G1 X68.189 Y116.314 E569.55739
G1 X74.611 Y122.736 E570.63942
G1 X73.598 Y122.736 E570.76013
G1 X68.189 Y117.327 E571.67146
G1 X68.189 Y118.341 E571.79217
G1 X72.584 Y122.736 E572.53278
G1 X71.571 Y122.736 E572.65349
G1 X68.189 Y119.354 E573.22340
G1 X68.189 Y120.367 E573.34411
G1 X70.558 Y122.736 E573.74331
G1 X69.545 Y122.736 E573.86402
G1 X68.189 Y121.380 E574.09251
G1 X68.189 Y122.393 E574.21322
G1 X68.532 Y122.736 E574.27101
M104 S200 ; set temperature
G1 Z0.700 F7800.000
G1 X106.989 Y102.117 F7800.000
G1 X106.485 Y102.677 E574.31034 F900.000
G1 X105.876 Y103.119 E574.34968
G1 X105.188 Y103.425 E574.38902
G1 X104.451 Y103.582 E574.42836
G1 X103.699 Y103.582 E574.46769
G1 X102.962 Y103.425 E574.50703
G1 X102.274 Y103.119 E574.54637
G1 X101.665 Y102.677 E574.58571
G1 X101.161 Y102.117 E574.62504
G1 X100.785 Y101.465 E574.66438
G1 X100.552 Y100.749 E574.70372
G1 X100.473 Y100.000 E574.74306
G1 X100.552 Y99.251 E574.78239
G1 X100.785 Y98.535 E574.82173
G1 X101.161 Y97.883 E574.86107
G1 X101.665 Y97.323 E574.90041
G1 X102.274 Y96.881 E574.93974
G1 X102.898 Y96.603 E574.97541
G1 X103.688 Y96.418 E575.01782
G1 X104.451 Y96.418 E575.05770 F900.000
G1 X105.188 Y96.575 E575.09703
G1 X105.876 Y96.881 E575.13637
G1 X106.485 Y97.323 E575.17571
G1 X106.989 Y97.883 E575.21505
G1 X107.365 Y98.535 E575.25438
G1 X107.598 Y99.251 E575.29372
G1 X107.677 Y100.000 E575.33306
G1 X107.598 Y100.749 E575.37240
G1 X107.365 Y101.465 E575.41173
G1 X107.019 Y102.065 E575.44794
G1 X106.648 Y101.869 F7800.000
G1 X106.203 Y102.364 E575.48267 F900.000
G1 X105.665 Y102.754 E575.51741
G1 X105.058 Y103.025 E575.55215
G1 X104.407 Y103.163 E575.58688
G1 X103.743 Y103.163 E575.62162
G1 X103.092 Y103.025 E575.65636
G1 X102.485 Y102.754 E575.69110
G1 X101.947 Y102.364 E575.72583
G1 X101.502 Y101.869 E575.76057
G1 X101.170 Y101.294 E575.79531
G1 X100.964 Y100.661 E575.83005
G1 X100.895 Y100.000 E575.86478
G1 X100.964 Y99.339 E575.89952
G1 X101.170 Y98.706 E575.93426
G1 X101.502 Y98.131 E575.96899
G1 X101.947 Y97.636 E576.00373
G1 X102.485 Y97.246 E576.03847
G1 X103.032 Y97.002 E576.06977
G1 X103.737 Y96.837 E576.10757
G1 X104.407 Y96.837 E576.14262 F900.000
G1 X105.058 Y96.975 E576.17736
G1 X105.665 Y97.246 E576.21209
G1 X106.203 Y97.636 E576.24683
G1 X106.648 Y98.131 E576.28157
G1 X106.980 Y98.706 E576.31630
G1 X107.186 Y99.339 E576.35104
G1 X107.255 Y100.000 E576.38578
G1 X107.186 Y100.661 E576.42052
G1 X106.980 Y101.294 E576.45525
G1 X106.678 Y101.817 E576.48686
G1 X106.341 Y101.646 F7800.000
G1 X105.949 Y102.082 E576.51137 F900.000
G1 X105.476 Y102.426 E576.53588
G1 X104.941 Y102.664 E576.56040
G1 X104.368 Y102.786 E576.58491
G1 X103.782 Y102.786 E576.60942
G1 X103.209 Y102.664 E576.63393
G1 X102.674 Y102.426 E576.65845
G1 X102.201 Y102.082 E576.68296
G1 X101.809 Y101.646 E576.70747
G1 X101.516 Y101.139 E576.73199
G1 X101.335 Y100.582 E576.75650
G1 X101.274 Y100.000 E576.78101
G1 X101.335 Y99.418 E576.80552
G1 X101.516 Y98.861 E576.83004
G1 X101.809 Y98.354 E576.85455
G1 X102.201 Y97.918 E576.87906
G1 X102.674 Y97.574 E576.90358
G1 X103.153 Y97.361 E576.92550
G1 X103.780 Y97.214 E576.95247
G1 X104.368 Y97.214 E576.97707 F900.000
G1 X104.941 Y97.336 E577.00158
G1 X105.476 Y97.574 E577.02609
G1 X105.949 Y97.918 E577.05061
G1 X106.341 Y98.354 E577.07512
G1 X106.634 Y98.861 E577.09963
G1 X106.815 Y99.418 E577.12414
G1 X106.876 Y100.000 E577.14866
G1 X106.815 Y100.582 E577.17317
G1 X106.634 Y101.139 E577.19768
G1 X106.371 Y101.594 E577.21968
G1 X106.491 Y102.017 F7800.000
G1 X133.079 Y124.004 F7800.000
G1 X66.921 Y124.004 E580.67609 F3600.000
G1 X66.921 Y75.996 E583.18425
G1 X133.079 Y75.996 E586.64065
G1 X133.079 Y123.944 E589.14568
G1 X133.498 Y124.423 F7800.000
G1 X66.502 Y124.423 E592.64585 F3600.000
G1 X66.502 Y75.577 E595.19778
G1 X133.498 Y75.577 E598.69795
G1 X133.498 Y124.363 E601.24675
G1 X133.875 Y124.800 F7800.000
G1 X66.125 Y124.800 E604.08278 F1800.000
G1 X66.125 Y75.200 E606.15906
G1 X133.875 Y75.200 E608.99509
G1 X133.875 Y124.740 E611.06885
G1 X133.529 Y124.600 F7800.000
G1 X132.614 Y123.757 F7800.000
G1 X132.832 Y123.539 E611.08496 F1200.000
