; generated by Slic3r 1.2.9 on 2017-06-02 at 22:18:14

; external perimeters extrusion width = 0.50mm
; perimeters extrusion width = 0.72mm
; infill extrusion width = 0.72mm
; solid infill extrusion width = 0.72mm
; top infill extrusion width = 0.72mm

M107
M104 S200 ; set temperature
G28 ; home all axes
G1 Z5 F5000 ; lift nozzle

M109 S200 ; wait for temperature to be reached
G21 ; set units to millimeters
G90 ; use absolute coordinates
M82 ; use absolute distances for extrusion
G92 E0
G1 Z0.350 F7800.000
G1 E-2.00000 F2400.00000
G92 E0
G1 X60.840 Y70.753 F7800.000
G1 E2.00000 F2400.00000
G1 X62.593 Y69.274 E2.07096 F1800.000
G1 X64.745 Y68.481 E2.14192
G1 X65.925 Y68.375 E2.17858
G1 X134.075 Y68.375 E4.28723
G1 X136.334 Y68.772 E4.35819
G1 X138.322 Y69.915 E4.42915 F1800.000
G1 X139.801 Y71.668 E4.50011
G1 X140.594 Y73.820 E4.57108
G1 X140.700 Y75.000 E4.60773
G1 X140.700 Y125.000 E6.15479
G1 X140.303 Y127.259 E6.22575
G1 X139.160 Y129.247 E6.29672
G1 X137.407 Y130.726 E6.36768
G1 X135.255 Y131.519 E6.43864
G1 X134.075 Y131.625 E6.47529
G1 X65.925 Y131.625 E8.58394
G1 X63.666 Y131.228 E8.65491
G1 X61.678 Y130.085 E8.72587
G1 X60.199 Y128.332 E8.79683
G1 X59.406 Y126.180 E8.86779
G1 X59.300 Y125.000 E8.90444
G1 X59.300 Y75.000 E10.45151
G1 X59.697 Y72.741 E10.52247
G1 X60.803 Y70.818 E10.59111
G1 E8.59111 F2400.00000
G92 E0
G1 X106.179 Y103.645 F7800.000
G1 E2.00000 F2400.00000
G1 X105.376 Y104.003 E2.02722 F1800.000
G1 X104.515 Y104.186 E2.05445
G1 X103.635 Y104.186 E2.08167
G1 X102.774 Y104.003 E2.10889
G1 X101.971 Y103.645 E2.13612
G1 X101.259 Y103.128 E2.16334
G1 X100.670 Y102.474 E2.19056
G1 X100.230 Y101.712 E2.21779
G1 X99.958 Y100.875 E2.24501
G1 X99.866 Y100.000 E2.27223
G1 X99.958 Y99.125 E2.29946
G1 X100.230 Y98.288 E2.32668
G1 X100.670 Y97.526 E2.35390
G1 X101.259 Y96.872 E2.38113
G1 X101.971 Y96.355 E2.40835
G1 X102.774 Y95.997 E2.43557
G1 X103.635 Y95.814 E2.46280
G1 X104.515 Y95.814 E2.49002 F1800.000
G1 X105.376 Y95.997 E2.51724
G1 X106.179 Y96.355 E2.54446
G1 X106.891 Y96.872 E2.57169
G1 X107.480 Y97.526 E2.59891
G1 X107.920 Y98.288 E2.62613
G1 X108.192 Y99.125 E2.65336
G1 X108.284 Y100.000 E2.68058
G1 X108.192 Y100.875 E2.70780
G1 X107.920 Y101.712 E2.73503
G1 X107.480 Y102.474 E2.76225
G1 X106.891 Y103.128 E2.78947
G1 X106.240 Y103.601 E2.81438
G1 X105.865 Y103.101 F7800.000
G1 X105.181 Y103.405 E2.83754 F1800.000
G1 X104.449 Y103.561 E2.86069
G1 X103.701 Y103.561 E2.88385
G1 X102.969 Y103.405 E2.90701
G1 X102.285 Y103.101 E2.93017
G1 X101.679 Y102.661 E2.95333
G1 X101.179 Y102.104 E2.97649
G1 X100.804 Y101.456 E2.99965
G1 X100.573 Y100.744 E3.02281
G1 X100.495 Y100.000 E3.04597
G1 X100.573 Y99.256 E3.06912
G1 X100.804 Y98.544 E3.09228
G1 X101.179 Y97.896 E3.11544
G1 X101.679 Y97.339 E3.13860
G1 X102.285 Y96.899 E3.16176
G1 X102.969 Y96.595 E3.18492
G1 X103.701 Y96.439 E3.20808
G1 X104.449 Y96.439 E3.23124 F1800.000
G1 X105.181 Y96.595 E3.25440
G1 X105.865 Y96.899 E3.27755
G1 X106.471 Y97.339 E3.30071
G1 X106.971 Y97.896 E3.32387
G1 X107.346 Y98.544 E3.34703
G1 X107.577 Y99.256 E3.37019
G1 X107.655 Y100.000 E3.39335
G1 X107.577 Y100.744 E3.41651
G1 X107.346 Y101.456 E3.43967
G1 X106.971 Y102.104 E3.46283
G1 X106.471 Y102.661 E3.48598
G1 X105.926 Y103.057 E3.50682
G1 X105.551 Y102.556 F7800.000
G1 X104.987 Y102.807 E3.52592 F1800.000
G1 X104.384 Y102.936 E3.54501
G1 X103.766 Y102.936 E3.56411
G1 X103.163 Y102.807 E3.58320
G1 X102.599 Y102.556 E3.60230
G1 X102.100 Y102.194 E3.62139
G1 X101.687 Y101.735 E3.64048
G1 X101.378 Y101.201 E3.65958
G1 X101.188 Y100.614 E3.67867
G1 X101.123 Y100.000 E3.69777
G1 X101.188 Y99.386 E3.71686
G1 X101.378 Y98.799 E3.73596
G1 X101.687 Y98.265 E3.75505
G1 X102.100 Y97.806 E3.77415
G1 X102.599 Y97.444 E3.79324
G1 X103.163 Y97.193 E3.81234
G1 X103.766 Y97.064 E3.83143
G1 X104.384 Y97.064 E3.85052 F1800.000
G1 X104.987 Y97.193 E3.86962
G1 X105.551 Y97.444 E3.88871
G1 X106.050 Y97.806 E3.90781
G1 X106.463 Y98.265 E3.92690
G1 X106.772 Y98.799 E3.94600
G1 X106.962 Y99.386 E3.96509
G1 X107.027 Y100.000 E3.98419
G1 X106.962 Y100.614 E4.00328
G1 X106.772 Y101.201 E4.02238
G1 X106.463 Y101.735 E4.04147
G1 X106.050 Y102.194 E4.06056
G1 X105.612 Y102.512 E4.07734
G1 X105.534 Y103.056 F7800.000
G1 X132.475 Y123.400 F7800.000
G1 X67.525 Y123.400 E6.08699 F1800.000
G1 X67.525 Y76.600 E7.53506
G1 X132.475 Y76.600 E9.54471
G1 X132.475 Y123.325 E10.99046
G1 X133.100 Y124.025 F7800.000
G1 X66.900 Y124.025 E13.03878 F1800.000
G1 X66.900 Y75.975 E14.52552
G1 X133.100 Y75.975 E16.57384
G1 X133.100 Y123.950 E18.05825
G1 X133.725 Y124.650 F7800.000
G1 X66.275 Y124.650 E20.14525 F1800.000
G1 X66.275 Y75.350 E21.67065
G1 X133.725 Y75.350 E23.75764
G1 X133.725 Y124.575 E25.28073
G1 X133.292 Y124.400 F7800.000
G1 X132.097 Y122.372 F7800.000
G1 X108.538 Y98.813 E26.31200 F1800.000
G1 X108.660 Y99.819 E26.34336
G1 X131.862 Y123.022 E27.35906
G1 X130.978 Y123.022 E27.38642
G1 X108.585 Y100.628 E28.36670
G1 X108.405 Y101.332 E28.38919
G1 X130.094 Y123.022 E29.33865
G1 X129.210 Y123.022 E29.36602
G1 X108.154 Y101.966 E30.28775
G1 X107.831 Y102.526 E30.30778
G1 X128.326 Y123.022 E31.20497
G1 X127.442 Y123.022 E31.23234
G1 X107.432 Y103.011 E32.10830
G1 X106.993 Y103.457 E32.12765
G1 X126.558 Y123.022 E32.98412
G1 X125.674 Y123.022 E33.01148
G1 X106.481 Y103.829 E33.85166
G1 X105.904 Y104.135 E33.87190
G1 X124.790 Y123.022 E34.69865
G1 X123.906 Y123.022 E34.72601
G1 X105.271 Y104.387 E35.54176
G1 X104.542 Y104.542 E35.56484
G1 X123.022 Y123.022 E36.37380
G1 X122.138 Y123.022 E36.40117
G1 X103.680 Y104.564 E37.20915
G1 X102.620 Y104.388 E37.24242
G1 X121.253 Y123.022 E38.05812
G1 X120.369 Y123.022 E38.08549
G1 X74.326 Y76.978 E40.10105
G1 X75.210 Y76.978 E40.12841
G1 X99.705 Y101.473 E41.20067
G1 X99.513 Y100.397 E41.23450
G1 X76.094 Y76.978 E42.25965
G1 X76.978 Y76.978 E42.28702
G1 X99.547 Y99.547 E43.27495
G1 X99.698 Y98.814 E43.29812
G1 X77.862 Y76.978 E44.25397
G1 X78.746 Y76.978 E44.28133
G1 X99.925 Y98.157 E45.20843
G1 X100.249 Y97.596 E45.22846
G1 X79.631 Y76.978 E46.13102
G1 X80.515 Y76.978 E46.15839
G1 X100.627 Y97.090 E47.03880
G1 X101.046 Y96.625 E47.05817
G1 X81.399 Y76.978 E47.91822
G1 X82.283 Y76.978 E47.94559
G1 X101.557 Y96.253 E48.78933
G1 X102.113 Y95.924 E48.80931
G1 X83.167 Y76.978 E49.63866
G1 X84.051 Y76.978 E49.66603
G1 X102.724 Y95.652 E50.48346
G1 X103.449 Y95.492 E50.50643
G1 X84.935 Y76.978 E51.31688
G1 X85.819 Y76.978 E51.34424
G1 X104.277 Y95.436 E52.15223
G1 X105.285 Y95.560 E52.18367
G1 X86.703 Y76.978 E52.99708
G1 X87.587 Y76.978 E53.02445
G1 X106.872 Y96.263 E53.86863
G1 X107.848 Y97.239 F7800.000
G1 X132.097 Y121.488 E54.93011 F1800.000
G1 X132.097 Y120.604 E54.95747
G1 X88.471 Y76.978 E56.86718
G1 X89.355 Y76.978 E56.89455
G1 X132.097 Y119.720 E58.76555
G1 X132.097 Y118.835 E58.79292
G1 X90.240 Y76.978 E60.62522
G1 X91.124 Y76.978 E60.65259
G1 X132.097 Y117.951 E62.44619
G1 X132.097 Y117.067 E62.47356
G1 X92.008 Y76.978 E64.22846
G1 X92.892 Y76.978 E64.25583
G1 X132.097 Y116.183 E65.97203
G1 X132.097 Y115.299 E65.99940
G1 X93.776 Y76.978 E67.67690
G1 X94.660 Y76.978 E67.70426
G1 X132.097 Y114.415 E69.34307
G1 X132.097 Y113.531 E69.37043
G1 X95.544 Y76.978 E70.97053
G1 X96.428 Y76.978 E70.99790
G1 X132.097 Y112.647 E72.55929
G1 X132.097 Y111.763 E72.58666
G1 X97.312 Y76.978 E74.10936
G1 X98.196 Y76.978 E74.13672
G1 X132.097 Y110.879 E75.62072
G1 X132.097 Y109.995 E75.64809
G1 X99.080 Y76.978 E77.09338
G1 X99.965 Y76.978 E77.12075
G1 X132.097 Y109.110 E78.52734
G1 X132.097 Y108.226 E78.55471
G1 X100.849 Y76.978 E79.92260
G1 X101.733 Y76.978 E79.94996
G1 X132.097 Y107.342 E81.27916
G1 X132.097 Y106.458 E81.30652
G1 X102.617 Y76.978 E82.59701
G1 X103.501 Y76.978 E82.62438
G1 X132.097 Y105.574 E83.87617
G1 X132.097 Y104.690 E83.90353
G1 X104.385 Y76.978 E85.11662
G1 X105.269 Y76.978 E85.14399
G1 X132.097 Y103.806 E86.31838
G1 X132.097 Y102.922 E86.34574
G1 X106.153 Y76.978 E87.48143
G1 X107.037 Y76.978 E87.50880
G1 X132.097 Y102.038 E88.60578
G1 X132.097 Y101.154 E88.63315
G1 X107.921 Y76.978 E89.69143
G1 X108.805 Y76.978 E89.71880
G1 X132.097 Y100.270 E90.73838
G1 X132.097 Y99.386 E90.76575
G1 X109.689 Y76.978 E91.74663
G1 X110.574 Y76.978 E91.77400
G1 X132.097 Y98.501 E92.71618
G1 X132.097 Y97.617 E92.74354
G1 X111.458 Y76.978 E93.64702
G1 X112.342 Y76.978 E93.67439
G1 X132.097 Y96.733 E94.53917
G1 X132.097 Y95.849 E94.56654
G1 X113.226 Y76.978 E95.39261
G1 X114.110 Y76.978 E95.41998
G1 X132.097 Y94.965 E96.20736
G1 X132.097 Y94.081 E96.23472
G1 X114.994 Y76.978 E96.98340
G1 X115.878 Y76.978 E97.01076
G1 X132.097 Y93.197 E97.72074
G1 X132.097 Y92.313 E97.74811
G1 X116.762 Y76.978 E98.41938
G1 X117.646 Y76.978 E98.44675
G1 X132.097 Y91.429 E99.07932
G1 X132.097 Y90.545 E99.10669
G1 X118.530 Y76.978 E99.70056
G1 X119.414 Y76.978 E99.72792
G1 X132.097 Y89.661 E100.28309
G1 X132.097 Y88.777 E100.31046
G1 X120.298 Y76.978 E100.82693
G1 X121.183 Y76.978 E100.85430
G1 X132.097 Y87.892 E101.33207
G1 X132.097 Y87.008 E101.35943
G1 X122.067 Y76.978 E101.79850
G1 X122.951 Y76.978 E101.82587
G1 X132.097 Y86.124 E102.22623
G1 X132.097 Y85.240 E102.25360
G1 X123.835 Y76.978 E102.61526
G1 X124.719 Y76.978 E102.64263
G1 X132.097 Y84.356 E102.96559
G1 X132.097 Y83.472 E102.99296
G1 X125.603 Y76.978 E103.27722
G1 X126.487 Y76.978 E103.30459
G1 X132.097 Y82.588 E103.55015
G1 X132.097 Y81.704 E103.57752
G1 X127.371 Y76.978 E103.78438
G1 X128.255 Y76.978 E103.81175
G1 X132.097 Y80.820 E103.97991
G1 X132.097 Y79.936 E104.00727
G1 X129.139 Y76.978 E104.13673
G1 X130.023 Y76.978 E104.16410
G1 X132.097 Y79.052 E104.25486
G1 X132.097 Y78.168 E104.28222
G1 X130.907 Y76.978 E104.33428
G1 X131.792 Y76.978 E104.36165
G1 X132.097 Y77.283 E104.37500
G1 X119.485 Y123.022 F7800.000
G1 X73.442 Y76.978 E106.39056 F1800.000
G1 X72.558 Y76.978 E106.41793
G1 X118.601 Y123.022 E108.43349
G1 X117.717 Y123.022 E108.46085
G1 X71.674 Y76.978 E110.47641
G1 X70.790 Y76.978 E110.50378
G1 X116.833 Y123.022 E112.51934
G1 X115.949 Y123.022 E112.54670
G1 X69.906 Y76.978 E114.56226
G1 X69.022 Y76.978 E114.58963
G1 X115.065 Y123.022 E116.60519
G1 X114.181 Y123.022 E116.63255
G1 X68.137 Y76.978 E118.64811
G1 X67.903 Y77.628 E118.66949
G1 X113.297 Y123.022 E120.65660
G1 X112.413 Y123.022 E120.68397
G1 X67.903 Y78.512 E122.63237
G1 X67.903 Y79.396 E122.65974
G1 X111.529 Y123.022 E124.56944
G1 X110.644 Y123.022 E124.59681
G1 X67.903 Y80.281 E126.46781
G1 X67.903 Y81.165 E126.49518
G1 X109.760 Y123.022 E128.32748
G1 X108.876 Y123.022 E128.35485
G1 X67.903 Y82.049 E130.14845
G1 X67.903 Y82.933 E130.17581
G1 X107.992 Y123.022 E131.93072
G1 X107.108 Y123.022 E131.95808
G1 X67.903 Y83.817 E133.67428
G1 X67.903 Y84.701 E133.70165
G1 X106.224 Y123.022 E135.37914
G1 X105.340 Y123.022 E135.40651
G1 X67.903 Y85.585 E137.04531
G1 X67.903 Y86.469 E137.07267
G1 X104.456 Y123.022 E138.67277
G1 X103.572 Y123.022 E138.70014
G1 X67.903 Y87.353 E140.26153
G1 X67.903 Y88.237 E140.28890
G1 X102.688 Y123.022 E141.81159
G1 X101.804 Y123.022 E141.83896
G1 X67.903 Y89.121 E143.32295
G1 X67.903 Y90.005 E143.35032
G1 X100.920 Y123.022 E144.79561
G1 X100.035 Y123.022 E144.82297
G1 X67.903 Y90.890 E146.22957
G1 X67.903 Y91.774 E146.25693
G1 X99.151 Y123.022 E147.62482
G1 X98.267 Y123.022 E147.65219
G1 X67.903 Y92.658 E148.98138
G1 X67.903 Y93.542 E149.00874
G1 X97.383 Y123.022 E150.29923
G1 X96.499 Y123.022 E150.32660
G1 X67.903 Y94.426 E151.57838
G1 X67.903 Y95.310 E151.60575
G1 X95.615 Y123.022 E152.81883
G1 X94.731 Y123.022 E152.84620
G1 X67.903 Y96.194 E154.02059
G1 X67.903 Y97.078 E154.04795
G1 X93.847 Y123.022 E155.18363
G1 X92.963 Y123.022 E155.21100
G1 X67.903 Y97.962 E156.30798
G1 X67.903 Y98.846 E156.33535
G1 X92.079 Y123.022 E157.39363
G1 X91.195 Y123.022 E157.42100
G1 X67.903 Y99.730 E158.44058
G1 X67.903 Y100.614 E158.46794
G1 X90.311 Y123.022 E159.44882
G1 X89.426 Y123.022 E159.47619
G1 X67.903 Y101.499 E160.41837
G1 X67.903 Y102.383 E160.44573
G1 X88.542 Y123.022 E161.34921
G1 X87.658 Y123.022 E161.37658
G1 X67.903 Y103.267 E162.24135
G1 X67.903 Y104.151 E162.26872
G1 X86.774 Y123.022 E163.09479
G1 X85.890 Y123.022 E163.12216
G1 X67.903 Y105.035 E163.90954
G1 X67.903 Y105.919 E163.93690
G1 X85.006 Y123.022 E164.68557
G1 X84.122 Y123.022 E164.71294
G1 X67.903 Y106.803 E165.42291
G1 X67.903 Y107.687 E165.45028
G1 X83.238 Y123.022 E166.12155
G1 X82.354 Y123.022 E166.14892
G1 X67.903 Y108.571 E166.78149
G1 X67.903 Y109.455 E166.80885
G1 X81.470 Y123.022 E167.40272
G1 X80.586 Y123.022 E167.43009
G1 X67.903 Y110.339 E167.98526
G1 X67.903 Y111.223 E168.01262
G1 X79.701 Y123.022 E168.52909
G1 X78.817 Y123.022 E168.55645
G1 X67.903 Y112.108 E169.03422
G1 X67.903 Y112.992 E169.06159
G1 X77.933 Y123.022 E169.50065
G1 X77.049 Y123.022 E169.52802
G1 X67.903 Y113.876 E169.92838
G1 X67.903 Y114.760 E169.95575
G1 X76.165 Y123.022 E170.31741
G1 X75.281 Y123.022 E170.34478
G1 X67.903 Y115.644 E170.66774
G1 X67.903 Y116.528 E170.69510
G1 X74.397 Y123.022 E170.97936
G1 X73.513 Y123.022 E171.00673
G1 X67.903 Y117.412 E171.25229
G1 X67.903 Y118.296 E171.27966
G1 X72.629 Y123.022 E171.48651
G1 X71.745 Y123.022 E171.51388
G1 X67.903 Y119.180 E171.68204
G1 X67.903 Y120.064 E171.70940
G1 X70.861 Y123.022 E171.83886
G1 X69.977 Y123.022 E171.86623
G1 X67.903 Y120.948 E171.95698
G1 X67.903 Y121.833 E171.98435
G1 X69.092 Y123.022 E172.03640
G1 X68.208 Y123.022 E172.06377
G1 X67.903 Y122.717 E172.07712
G1 Z0.650 F7800.000
G1 X107.358 Y102.385 F7800.000
G1 X106.790 Y103.015 E172.10068 F900.000
G1 X106.104 Y103.514 E172.12425
G1 X105.329 Y103.859 E172.14781
G1 X104.499 Y104.035 E172.17137
G1 X103.651 Y104.035 E172.19494
G1 X102.821 Y103.859 E172.21850
G1 X102.046 Y103.514 E172.24206
G1 X101.360 Y103.015 E172.26562
G1 X100.792 Y102.385 E172.28919
G1 X100.368 Y101.650 E172.31275
G1 X100.106 Y100.844 E172.33631
G1 X100.017 Y100.000 E172.35987
G1 X100.106 Y99.156 E172.38344
G1 X100.368 Y98.350 E172.40700
G1 X100.792 Y97.615 E172.43056
G1 X101.360 Y96.985 E172.45413
G1 X102.046 Y96.486 E172.47769
G1 X102.821 Y96.141 E172.50125
G1 X103.651 Y95.965 E172.52481
G1 X104.499 Y95.965 E172.54838 F900.000
G1 X105.329 Y96.141 E172.57194
G1 X106.104 Y96.486 E172.59550
G1 X106.790 Y96.985 E172.61906
G1 X107.358 Y97.615 E172.64263
G1 X107.782 Y98.350 E172.66619
G1 X108.044 Y99.156 E172.68975
G1 X108.133 Y100.000 E172.71332
G1 X108.044 Y100.844 E172.73688
G1 X107.782 Y101.650 E172.76044
G1 X107.395 Y102.320 E172.78192
G1 X106.825 Y101.998 F7800.000
G1 X106.350 Y102.526 E172.80166 F900.000
G1 X105.775 Y102.944 E172.82140
G1 X105.125 Y103.233 E172.84114
G1 X104.430 Y103.381 E172.86088
G1 X103.720 Y103.381 E172.88062
G1 X103.025 Y103.233 E172.90037
G1 X102.375 Y102.944 E172.92011
G1 X101.800 Y102.526 E172.93985
G1 X101.325 Y101.998 E172.95959
G1 X100.969 Y101.383 E172.97933
G1 X100.750 Y100.707 E172.99907
G1 X100.676 Y100.000 E173.01881
G1 X100.750 Y99.293 E173.03855
G1 X100.969 Y98.617 E173.05829
G1 X101.325 Y98.002 E173.07804
G1 X101.800 Y97.474 E173.09778
G1 X102.375 Y97.056 E173.11752
G1 X103.025 Y96.767 E173.13726
G1 X103.720 Y96.619 E173.15700
G1 X104.430 Y96.619 E173.17674 F900.000
G1 X105.125 Y96.767 E173.19648
G1 X105.775 Y97.056 E173.21622
G1 X106.350 Y97.474 E173.23596
G1 X106.825 Y98.002 E173.25570
G1 X107.181 Y98.617 E173.27544
G1 X107.400 Y99.293 E173.29519
G1 X107.474 Y100.000 E173.31493
G1 X107.400 Y100.707 E173.33467
G1 X107.181 Y101.383 E173.35441
G1 X106.863 Y101.933 E173.37207
G1 X106.382 Y101.676 F7800.000
G1 X105.983 Y102.119 E173.38309 F900.000
G1 X105.501 Y102.469 E173.39411
G1 X104.956 Y102.712 E173.40513
G1 X104.373 Y102.836 E173.41615
G1 X103.777 Y102.836 E173.42717
G1 X103.194 Y102.712 E173.43819
G1 X102.649 Y102.469 E173.44921
G1 X102.167 Y102.119 E173.46023
G1 X101.768 Y101.676 E173.47125
G1 X101.470 Y101.160 E173.48228
G1 X101.286 Y100.593 E173.49330
G1 X101.224 Y100.000 E173.50432
G1 X101.286 Y99.407 E173.51534
G1 X101.470 Y98.840 E173.52636
G1 X101.768 Y98.324 E173.53738
G1 X102.167 Y97.881 E173.54840
G1 X102.649 Y97.531 E173.55942
G1 X103.194 Y97.288 E173.57044
G1 X103.777 Y97.164 E173.58146
G1 X104.373 Y97.164 E173.59248 F900.000
